X:13647
%783
T:Ash Grove
M:3/4
L:1/8
C:Trad.
R:Waltz
K:Cmaj
|:"G"G
%Error : Bar 1 is 1/8 not 3/4
|"C"c2e2gf|e2c2c2|"F"d2fedc|"G"B2G2G2|"C"c2edcB|"F"A2F2A2|
%Error : Guitar chord name not properly closed
"C"G2c2" "

%Error : Unrecognized character: m

%Error : Guitar chord name not properly closed
G"bb2|"C"c4:||:efg||"C"g2fgab|a2g2f2|"G7"f2efga|g2f2e2|"C"eb2defg|"A"eb2e2"
c2
%Error : Bar 8 is 9/4 not 3/4
|
%Error : Malformed note : expecting a-g or A-G
"G"B2g2"D"f2|"G"g4G
%Error : Bar 10 is 5/8 not 3/4
|"C"c2e2gf|e2c2c2|"F"d2fedc|"G"B2G2G2|"C"c2edcB|
%Error : Guitar chord name not properly closed
""

%Error : Guitar chord name not properly closed
F"A2G2B2|"C"G2d2"G"bb2|"C"c4:||"


